icon_installer/data/icons/scalable/actions/show-entry-clear-symbolic.svg

<?xml version="1.0" encoding="UTF-8"?>
<svg height="16px" viewBox="0 0 16 16" width="16px" xmlns="http://www.w3.org/2000/svg">
    <path d="m 6 2 l -6 6 l 6 6 h 9.035156 c 0.53125 -0.023438 0.964844 -0.492188 0.964844 -1 v -10 c 0 -0.53125 -0.34375 -1 -1.007812 -1 z m 1 3 h 1 h 0.03125 c 0.253906 0.011719 0.511719 0.128906 0.6875 0.3125 l 1.28125 1.28125 l 1.3125 -1.28125 c 0.265625 -0.230469 0.445312 -0.304688 0.6875 -0.3125 h 1 v 1 c 0 0.285156 -0.035156 0.550781 -0.25 0.75 l -1.28125 1.28125 l 1.25 1.25 c 0.1875 0.1875 0.28125 0.453125 0.28125 0.71875 v 1 h -1 c -0.265625 0 -0.53125 -0.09375 -0.71875 -0.28125 l -1.28125 -1.28125 l -1.28125 1.28125 c -0.1875 0.1875 -0.453125 0.28125 -0.71875 0.28125 h -1 v -1 c 0 -0.265625 0.09375 -0.53125 0.28125 -0.71875 l 1.28125 -1.25 l -1.28125 -1.28125 c -0.210938 -0.195312 -0.304688 -0.46875 -0.28125 -0.75 z m 0 0" fill="#222222"/>
</svg>

<svg xmlns="http://www.w3.org/2000/svg" width="16" height="16"><path fill="#222" d="M6 2 0 8l6 6h9.035A1.03 1.03 0 0 0 16 13V3c0-.531-.344-1-1.008-1zm1 3h1.031c.254.012.512.129.688.313L10 6.593l1.313-1.28c.265-.231.445-.305.687-.313h1v1c0 .285-.035.55-.25.75l-1.281 1.281 1.25 1.25c.187.188.281.453.281.719v1h-1c-.266 0-.531-.094-.719-.281L10 9.438l-1.281 1.28A1.016 1.016 0 0 1 8 11H7v-1c0-.266.094-.531.281-.719l1.282-1.25L7.28 6.75A.904.904 0 0 1 7 6zm0 0"/></svg>
